X: 32926
T: Prayer For Tears
R: reel
M: 4/4
K: Aminor
|:"Am"A2e2cded-|"F"dcde c2Ac|"G"d>BAB-B2EG|"Em"d>BAB d>BAB|
"Em"G>ABA-"F"ABcd-|"G"dcBA-"Am"ABcd|"Em"e>dcd2e2e-|1 "Em"e>dcd2e(3dcd:|2 edcd2Ace|
|:"F"f2g2fede-|"C"e2degG(3GAc|"Dm"d2d2dcde-|"F"efecdecB|
"F"A>BcB-"G"Bcdc-|"Am"cdeg-"C"gfeB|"F"c>AEB-"G"BGEA-|1 "Am"Ad(3cBA"Em"BAce:|2|"Am"Ad(3cBA"Em"B E(3GAB||

